X: 36057
T: Scartaglen, The
R: reel
M: 4/4
K: Dmajor
D2 (3FED FAdB|A2FD EA3|D2(3FED FAdB|AFDF EF D2|
D2 (3FED FAdB|A2FD EB3|D2(3FED FAdB|AFDF EF D2||
Adfd edfd|Adfd (3efe dB|Adfd edfd|AFDE FE3|
Adfd edfd|Adfd eB~B2|~g3e ~f3e|dBAF ED (3EFG||
A3 f edfd|A2 fd (3efe dB|A2 fd edfd|AFDE FE3|
Adfd edfd|Adfd eB~B2|~g3e ~f3e|dBAF EDEF||D4||

